
;Exported by FreeCAD
;Post Processor: centroid_post
;CAM file: C:/Users/jdhus/OneDrive/SyncedUserFolders/Documents/3dModels/CNC_test.FCStd
;Output Time: 2018-12-04 13:01:23.178000
G90 G80 G40 G49
;T1=Default_Tool
;begin preamble
G53 G00 G17
G20
;begin operation
;Default Tool
M6 T1
M3 S0
;end operation: Default Tool
;begin operation
;Contour
;Compensated Tool Path. Diameter: 5.0
G0 Z6.0000
G0 X85.7678 Y49.2678
G0 Z4.0000
G1 X85.7678 Y49.2678 Z-4.0000
G2 X86.5000 Y47.5000 Z-4.0000 I-1.7678 J-1.7678
G1 X86.5000 Y-52.5000 Z-4.0000
G2 X84.0000 Y-55.0000 Z-4.0000 I-2.5000 J0.0000
G1 X-81.0000 Y-55.0000 Z-4.0000
G2 X-83.5000 Y-52.5000 Z-4.0000 I0.0000 J2.5000
G1 X-83.5000 Y47.5000 Z-4.0000
G2 X-81.0000 Y50.0000 Z-4.0000 I2.5000 J-0.0000
G1 X84.0000 Y50.0000 Z-4.0000
G2 X85.7678 Y49.2678 Z-4.0000 I-0.0000 J-2.5000
G1 X85.7678 Y49.2678 Z-8.0000
G2 X86.5000 Y47.5000 Z-8.0000 I-1.7678 J-1.7678
G1 X86.5000 Y-52.5000 Z-8.0000
G2 X84.0000 Y-55.0000 Z-8.0000 I-2.5000 J0.0000
G1 X-81.0000 Y-55.0000 Z-8.0000
G2 X-83.5000 Y-52.5000 Z-8.0000 I0.0000 J2.5000
G1 X-83.5000 Y47.5000 Z-8.0000
G2 X-81.0000 Y50.0000 Z-8.0000 I2.5000 J-0.0000
G1 X84.0000 Y50.0000 Z-8.0000
G2 X85.7678 Y49.2678 Z-8.0000 I-0.0000 J-2.5000
G0 Z6.0000
;end operation: Contour
;begin postamble
M5 M25
G49 H0
G90 G80 G40 G49
M99
